actions/16/games-config-board.svg

<svg xmlns="http://www.w3.org/2000/svg" viewBox="0 0 16 16">
  <defs id="defs3051">
    <style type="text/css" id="current-color-scheme">
      .ColorScheme-Text {
        color:#eff0f1;
      }
      </style>
  </defs>
 <path style="fill:currentColor;fill-opacity:1;stroke:none" 
     d="m2 2v13h13v-13h-12zm1 1h2v2h-2zm3 0h2v2h-2zm3 0h2v2h-2zm3 0h2v2h-2zm-9 3h2v2h-2zm3 0h2v2h-2zm3 0h2v2h-2zm3 0h2v2h-2zm-9 3h2v2h-2zm3 0h2v2h-2zm3 0h2v2h-2zm3 0h2v2h-2zm-9 3h2v2h-2zm3 0h2v2h-2zm3 0h2v2h-2zm3 0h2v2h-2z"
     class="ColorScheme-Text"
     />
</svg>

<svg xmlns="http://www.w3.org/2000/svg" viewBox="0 0 16 16">
  <defs id="defs3051">
 <style type="text/css" id="current-color-scheme">.ColorScheme-Text {color:#fcfcfc;}</style>
  </defs>
 <path style="fill:currentColor;fill-opacity:1;stroke:none" 
     d="m 2,4 c 0,2 0,7 0,9 0,2 2,2 2,2 h 9 c 0,0 2,0 2,-2 0,-2 0,-7 0,-9 C 15,2 13,2 13,2 H 4 C 4,2 2,2 2,4 Z M 4,3 H 5 V 5 H 3 C 3,5 3,5 3,4 3,3 4,3 4,3 Z M 6,3 H 8 V 5 H 6 Z m 3,0 h 2 V 5 H 9 Z m 3,0 h 1 c 0,0 1,0 1,1 0,1 0,1 0,1 H 12 Z M 3,6 H 5 V 8 H 3 Z M 6,6 H 8 V 8 H 6 Z m 3,0 h 2 V 8 H 9 Z m 3,0 h 2 V 8 H 12 Z M 3,9 h 2 v 2 H 3 Z m 3,0 h 2 v 2 H 6 Z m 3,0 h 2 v 2 H 9 Z m 3,0 h 2 v 2 h -2 z m -9,3 h 2 v 2 H 4 c 0,0 -1,0 -1,-1 0,-1 0,-1 0,-1 z m 3,0 h 2 v 2 H 6 Z m 3,0 h 2 v 2 H 9 Z m 3,0 h 2 c 0,0 0,0 0,1 0,1 -1,1 -1,1 h -1 z"
     class="ColorScheme-Text"
     />
</svg>
